X:1
T:Old Time Power
T:Paul Rader, 1917
T:Old Time Power
T:Public Domain
T:Public Domain
C:Paul Rader, 1917
Z:Public Domain
%%score ( 1 2 ) ( 3 4 )
L:1/8
M:4/4
K:Bb
V:1 treble 
V:2 treble 
V:3 bass 
V:4 bass 
V:1
 [DF]2 [EG]2 [DF]2 [Fd]2 | [Ec]3 [EB] [FA]2 [EG]2 | [DF]2 [EG]2 [DF]2 [FB]2 | %3
w: 1.~We are ga- thered|for Thy bless- ing,|We will wait up-|
w: 2.~We will glo- ry|in Thy pow- er,|We will sing of|
w: 3.~Bring us low in|prayer be- fore Thee,|And with faith our|
 [Fc]2 [=Ed]2 (F2 _E2) | [Dd]2 [Ec]2 [DB]3 F | [EG]2 [EB]2 [EG]2 [DF]2 | [FB]2 [DB]2 [Ec]2 [Ge]2 | %7
w: on our God; *|will trust in Him|who loved us, And|who bought us with|
w: wond- rous grace; *|our midst, as Thou|has prom- ised, Come,|O come, and take|
w: souls in- spire, *|we claim, by faith,|the prom- ise Of|the Ho- ly Ghost|
 [Fd]2 (FE) [DB]4 ||"^Refrain" [DF]4 [B,D]2 [DF]2 | [Fd]3 [=E^c] [Fd]4 | [Ec]4 [EB]2 [EG]2 | %11
w: His blood. * *||||
w: Thy place. * *||||
w: and fire. * *||||
 [DF]2 [B,D]2 [A,C]4 | [DF]4 [EG]2 [DF]2 | [FB]2 (FE) [DB]2 [Gc]2 | [Fd]4 (F2 E2) | [DB]8 |] %16
w: |||||
w: |||||
w: |||||
V:2
 x8 | x8 | x8 | x4 c4 | x8 | x8 | x8 | x2 c2 x4 || x8 | x8 | x8 | x8 | x8 | x2 c2 x4 | x4 c4 | %15
w: |||We||||||||||||
w: |||In||||||||||||
w: |||Till||||||||||||
 x8 |] %16
w: |
w: |
w: |
V:3
 [B,,B,]2 [B,,B,]2 [B,,B,]2 [B,,B,]2 | [E,G,]3 [E,G,] [E,A,]2 [E,B,]2 | %2
w: ~ ~ ~ ~|~ ~ ~ ~|
 [B,,B,]2 [B,,B,]2 [B,,B,]2 [D,B,]2 | [C,A,]2 [C,B,]2 [F,A,]4 | [B,,F,]2 (G,A,) [B,,B,]3 [D,B,] | %5
w: ~ ~ ~ ~|~ ~ ~|~ ~ * ~ ~|
 [E,B,]2 [E,G,]2 [B,,B,]2 [B,,B,]2 | [D,B,]2 [B,,B,]2 [E,G,]2 [C,C]2 | [F,B,]2 [F,A,]2 [B,,B,]4 || %8
w: ~ ~ ~ ~|~ ~ ~ ~|~ ~ Spir-|
 [B,,B,]4 [B,,F,]2 [B,,B,]2 | [B,,B,]3 [B,,G,] (F,2 _A,2) | [E,G,]4 [E,G,]2 [E,B,]2 | %11
w: it, now melt|and move All *|our hearts with|
 [B,,B,]2 [D,F,]2 F,4 | [B,,B,]4 [B,,B,]2 [B,,B,]2 | [D,B,]2 [F,A,]2 [G,B,]2 [E,B,]2 | %14
w: love, Breathe on|from a- bove|With old time power.|
 [F,B,]4 [F,A,]4 | [B,,B,]8 |] %16
w: ||
V:4
 x8 | x8 | x8 | x8 | x2 B,,2 x4 | x8 | x8 | x8 || x8 | x4 B,,4 | x8 | x4 F,4 | x8 | x8 | x8 | x8 |] %16
w: ||||~|||||of||us|||||

